icons/linear-new-digital-qr-code.svg

<svg xmlns="http://www.w3.org/2000/svg" width="32px" height="32px" viewBox="0 0 32 32" version="1.1">
    <title>linear-new-digital-qr-code</title>
    <g id="linear-new-digital-qr-code" stroke-width="1" fill-rule="evenodd">
        <path d="M13,3 C13.5522847,3 14,3.44771525 14,4 L14,13 C14,13.5522847 13.5522847,14 13,14 L4,14 C3.44771525,14 3,13.5522847 3,13 L3,4 C3,3.44771525 3.44771525,3 4,3 L13,3 Z M12,5 L5,5 L5,12 L12,12 L12,5 Z M28,3 C28.5522847,3 29,3.44771525 29,4 L29,13 C29,13.5522847 28.5522847,14 28,14 L19,14 C18.4477153,14 18,13.5522847 18,13 L18,4 C18,3.44771525 18.4477153,3 19,3 L28,3 Z M27,5 L20,5 L20,12 L27,12 L27,5 Z M13,18 C13.5522847,18 14,18.4477153 14,19 L14,28 C14,28.5522847 13.5522847,29 13,29 L4,29 C3.44771525,29 3,28.5522847 3,28 L3,19 C3,18.4477153 3.44771525,18 4,18 L13,18 Z M12,20 L5,20 L5,27 L12,27 L12,20 Z M19,18 C19.5522847,18 20,18.4477153 20,19 L20,28 C20,28.5522847 19.5522847,29 19,29 C18.4477153,29 18,28.5522847 18,28 L18,19 C18,18.4477153 18.4477153,18 19,18 Z M28,18 C28.5522847,18 29,18.4477153 29,19 L29,28 C29,28.5522847 28.5522847,29 28,29 C27.4477153,29 27,28.5522847 27,28 L27,19 C27,18.4477153 27.4477153,18 28,18 Z M23.5,23 C24.0522847,23 24.5,23.4477153 24.5,24 L24.5,28 C24.5,28.5522847 24.0522847,29 23.5,29 C22.9477153,29 22.5,28.5522847 22.5,28 L22.5,24 C22.5,23.4477153 22.9477153,23 23.5,23 Z M23.5,18 C24.0522847,18 24.5,18.4477153 24.5,19 L24.5,20 C24.5,20.5522847 24.0522847,21 23.5,21 C22.9477153,21 22.5,20.5522847 22.5,20 L22.5,19 C22.5,18.4477153 22.9477153,18 23.5,18 Z" id="&#24418;&#29366;" fill-rule="nonzero" />
    </g>
</svg>

<svg xmlns="http://www.w3.org/2000/svg" viewBox="0 0 32 32"><path fill="currentColor" d="M13 3a1 1 0 0 1 1 1v9a1 1 0 0 1-1 1H4a1 1 0 0 1-1-1V4a1 1 0 0 1 1-1zm-1 2H5v7h7zm16-2a1 1 0 0 1 1 1v9a1 1 0 0 1-1 1h-9a1 1 0 0 1-1-1V4a1 1 0 0 1 1-1zm-1 2h-7v7h7zM13 18a1 1 0 0 1 1 1v9a1 1 0 0 1-1 1H4a1 1 0 0 1-1-1v-9a1 1 0 0 1 1-1zm-1 2H5v7h7zm7-2a1 1 0 0 1 1 1v9a1 1 0 0 1-2 0v-9a1 1 0 0 1 1-1m9 0a1 1 0 0 1 1 1v9a1 1 0 0 1-2 0v-9a1 1 0 0 1 1-1m-4.5 5a1 1 0 0 1 1 1v4a1 1 0 0 1-2 0v-4a1 1 0 0 1 1-1m0-5a1 1 0 0 1 1 1v1a1 1 0 0 1-2 0v-1a1 1 0 0 1 1-1"/></svg>
